X: 1
T:Constant Billy - Oddington
M:6/8
L:1/8
Z: Mackin and "The Rag Tune Book"
W: Morris formula:  1/2A.(AB)6
K: A
P: A
|: E | 2 2 c/A3/c | d2 B G2 e | c3/B/A F2 E | EFG A2 z :|
P:B
cde f3 | Bcd e3 | cde f3 | Bcd e2 (3e/f/g/ |
a2 e c/A3/c | d2 B G2 E | c3/B/A F2 E | EFG A2 || 